X: 1199
T: Kalmadı Sabra Karârım
C: Udî Nevres Bey
O: Turkey
F: http://compmusic.upf.edu/node/140
N: murekkep-isfahan--sarki--devrihindi--kalmadi_sabra--udi_nevres_bey
N: makam= murekkep-isfahan
N: form= sarki
N: usul= devrihindi = 7/4
M: 7/4
L: 1/16
K: C _1/4B   
Q: 1/4=81
%%MIDI tuningsystem comma53
A4 A4 g4 (3f2e2d2 {e}d2c2 d8  | g8 f2e2 aga_b a2g2 f3e d4  | 
w:  ARANAĞME  |   | 
c2d2 e2f2 g2a2 g2{a}g2 (3f2e2d2 c2_2/4B2 A2G2  | \
w:   | 
A2G2 (3f2e2d2 c2d2 c3_2/4B B3A A8  | 
w:   | 
A4 A4 g4 (3f2e2d2 {e}d2c2 d8  | g8 f2e2 aga_b a2g2 f3e d4  | 
w:  ARANAĞME  |   | 
c2d2 e2f2 g2a2 g2{a}g2 (3f2e2d2 c2_2/4B2 A2G2  | \
w:   | 
A2G2 (3f2e2d2 c2d2 c3_2/4B B3A A8  | 
w:   | 
d2c2 =B4 ^c4 d8 e2f2 {g}fed2  | a2g2 f2e2 e2d2 e2d2 {e}d2e2 d2c2 _2/4B2A2  | 
w:  Kal *  *  ma dı  sab  |  ra  *  *  *  ka *  ra *  *  *  *  rım   | 
_2/4B2c2 B4 c4 d4 e2^f2 g2{a}g2 =f2e2  | \
w:  ey  *  *  pe ri   | 
a2g2 f2e2 d2c2 d8 GABc d2z2  | 
w:  ey  *  *  *  pe *  ri   SAZ  | 
d12 g2f2 e4 gfed c4  | a2g2 f2e2 e2d2 d2c4d2 {e}dc_2/4BA B4  | 
w:  Reh  zâ *  *  rın   |  bek *  *  *  le *  rim   | 
G2A2 G2c2 _2/4B2c2 d2e2 {f}e2d2 c2B3Ae2  | \
w:  çok  | 
d4 c2_2/4B2 B2A2 A6g2 fedc d4  | 
w:  tan  *  *  be *  ri   SAZ  | 
d12 g2f2 e4 gfed c4  | a2g2 f2e2 e2d2 d2c4d2 {e}dc_2/4BA B4  | 
w:  Reh  zâ *  *  rın   |  bek *  *  *  le *  rim   | 
G2A2 G2c2 _2/4B2c2 d2e2 {f}e2d2 c2B3Ae2  | \
w:  çok  | 
d4 c2_2/4B2 B2A2 A6g2 ^f2g2 a4  | 
w:  tan  *  *  be *  ri   SAZ  | 
g2{a}g2 {a}g2a2 a4 d2e2 ^f2g2 a2_2/4b2 c'2ba  | \
w:  Bun *  *  *  *  *  ca  nâ *  *  *  zın   | 
a2g2 f2e2 e2d2 d4 c8 _2/4B4  | 
w:  var  *  *  *  mı *  dır   | 
d3c =B4 ^c4 d4 e2^f2 g4 =f2e2  | a2g2 f2e2 d2c2 d8 GA_2/4Bc d2z2  | 
w:  söy *  *  le  ye *  *  ri   |  ah  *  *  *  ye *  ri   SAZ  | 
d12 g2f2 e4 gfed c4  | a2g2 f2e2 e2d2 d2c4d2 {e}dc_2/4BA B4  | 
w:  Reh  zâ *  *  rın   |  bek *  *  *  le *  rim   | 
G2A2 G2c2 _2/4B2c2 d2e2 {f}e2d2 c2B3Ae2  | \
w:  çok  | 
d4 c2_2/4B2 B2A2 A6g2 fedc d4  | 
w:  tan  *  *  be *  ri   SAZ  | 
d12 g2f2 e4 gfed c4  | a2g2 f2e2 e2d2 d2c4d2 {e}dc_2/4BA B4  | 
w:  Reh  zâ *  *  rın   |  bek *  *  *  le *  rim   | 
G2A2 G2c2 _2/4B2c2 d2e2 {f}e2d2 c2B3Ae2  | \
w:  çok  | 
d4 c2_2/4B2 B2A2 A6|
w:  tan  *  *  be *  ri    | 


